!!!COM: Palestrina, Giovanni Perluigi da
!!!OPR: Ut re mi fa sol la
!!!OTL: Benedictus
**kern	**kern	**kern	**kern
*Ibass	*Itenor	*Icalto	*Icant
!Bassus	!Tenor	!Altus	!Cantus
*clefF4	*clefGv2	*clefG2	*clefG2
*k[]	*k[]	*k[]	*k[]
*C:ion	*C:ion	*C:ion	*C:ion
*M4/2	*M4/2	*M4/2	*M4/2
=1	=1	=1	=1
0r	0r	1c	0r
.	.	1d	.
=2	=2	=2	=2
0r	0r	1e	1g
.	.	1f	1a
=3	=3	=3	=3
0r	0r	1g	1b
.	.	2.a	1cc
.	.	4g	.
=4	=4	=4	=4
0r	0r	2f	1dd
.	.	2g	.
.	.	2c	1ee
.	.	[2cc	.
=5	=5	=5	=5
0r	1G	2cc]	1dd
.	.	1b	.
.	1A	.	1cc
.	.	[2a	.
=6	=6	=6	=6
0r	1B	4a]	1b
.	.	4g	.
.	.	1g	.
.	1c	.	[1a
.	.	4f	.
.	.	4e	.
=7	=7	=7	=7
1r	1d	1f#	1a]
1C	1e	2g	1g
.	.	2c	.
=8	=8	=8	=8
1D	1d	2B	0r
.	.	2A	.
1E	2c	2G	.
.	2B	2g	.
=9	=9	=9	=9
1F	2A	2f	0r
.	1c	2e	.
1G	.	2d	.
.	2B	[2e	.
=10	=10	=10	=10
1A	1c	2e]	1r
.	.	4d	.
.	.	4c	.
1G	[1d	4B	1g
.	.	4G	.
.	.	[2g	.
=11	=11	=11	=11
1r	1d]	2g]	1a
.	.	2f#	.
1G	2r	1g	1b
.	2g	.	.
=12	=12	=12	=12
1A	2f	0r	1cc
.	2e	.	.
1B	2d	.	1dd
.	2g	.	.
=13	=13	=13	=13
1c	4e	2r	1ee
.	4c	.	.
.	1g	2cc	.
1d	.	2b	1dd
.	2f#	[2a	.
=14	=14	=14	=14
1e	1g	4a]	2cc
.	.	4g	.
.	.	1g	2b
2c	1r	.	1a
2d	.	2f#	.
=15	=15	=15	=15
2e	1c	1g	[0g
1c	.	.	.
.	1d	1G	.
2B	.	.	.
=16	=16	=16	=16
1c	2.e	2r	0g]
.	.	2c	.
.	8d	.	.
.	8c	.	.
1G	2B	1d	.
.	[2G	.	.
=17	=17	=17	=17
1C	2G]	1e	0r
.	1A	.	.
1D	.	1f	.
.	[2B	.	.
=18	=18	=18	=18
1E	2B]	2.e	1g
.	1c	.	.
.	.	4d	.
1F	.	4c	1a
.	.	4A	.
.	[2d	[2a	.
=19	=19	=19	=19
1G	2d]	4a]	1b
.	.	4g	.
.	2.e	2.g	.
1A	.	.	1cc
.	4d	4f#	.
.	[2c	4f#	.
.	.	4e	.
=20	=20	=20	=20
1G	2c]	0g	1dd
.	2B	.	.
2r	1c	.	1ee
[2c	.	.	.
=21	=21	=21	=21
2c]	1G	2r	1dd
2B	.	2d	.
1A	2r	2e	1cc
.	2A	2c	.
=22	=22	=22	=22
1G	2B	2d	1b
.	2G	1g	.
2r	1d	.	1a
2D	.	2f#	.
=23	=23	=23	=23
8E	2r	1g	1g
8D	.	.	.
8E	.	.	.
8F	.	.	.
1G	2G	.	.
.	8A	1r	1r
.	8G	.	.
.	8A	.	.
.	8B	.	.
2F	[2c	.	.
=24	=24	=24	=24
2E	2c]	2r	1r
2D	2B	2d	.
2C	2c	8e	1g
.	.	8d	.
.	.	8e	.
.	.	8f	.
2E	2G	[2g	.
=25	=25	=25	=25
1D	1d	2g]	1a
.	.	2f	.
2r	1G	2e	1b
2G	.	2d	.
=26	=26	=26	=26
8A	0r	2c	1cc
8G	.	.	.
8A	.	.	.
8B	.	.	.
1c	.	1e	.
.	.	.	1dd
2B	.	[2d	.
=27	=27	=27	=27
2.A	1r	4d]	1ee
.	.	4c	.
.	.	1c	.
4G	.	.	.
2F	2r	.	1dd
2G	2d	2B	.
=28	=28	=28	=28
1C	8e	2c	1cc
.	8d	.	.
.	8e	.	.
.	8f	.	.
.	1g	2.e	.
2r	.	.	1b
.	.	4d	.
2G	2d	2B	.
=29	=29	=29	=29
8A	2f	1c	1a
8G	.	.	.
8A	.	.	.
8B	.	.	.
1c	2e	.	.
.	1d	[1G	[1g
4B	.	.	.
4A	.	.	.
=30	=30	=30	=30
1B	2r	1G]	0g]
.	2d	.	.
2.c	8e	2r	.
.	8d	.	.
.	8e	.	.
.	8f	.	.
.	[2g	2g	.
4B	.	.	.
=31	=31	=31	=31
1A	2g]	8a	0r
.	.	8g	.
.	.	8a	.
.	.	8b	.
.	2f	1cc	.
1G	2e	.	.
.	2d	2b	.
=32	=32	=32	=32
1C	2c	2a	0r
.	2e	2g	.
1D	2.d	2f	.
.	.	[2a	.
.	4c	.	.
=33	=33	=33	=33
2E	2B	4a]	1g
.	.	4g	.
2C	2c	1g	.
1r	1A	.	1a
.	.	2f	.
=34	=34	=34	=34
2r	2G	2e	1b
2G	2g	2d	.
8A	2f	1c	1cc
8G	.	.	.
8A	.	.	.
8B	.	.	.
[2c	[2e	.	.
=35	=35	=35	=35
2c]	2e]	1g	1dd
2B	1d	.	.
1A	.	2r	1ee
.	2c#	2e	.
=36	=36	=36	=36
2.D	2d	8f	1dd
.	.	8e	.
.	.	8f	.
.	.	8g	.
.	1f	1a	.
4E	.	.	.
2F	.	.	1cc
4C	[2e	4g	.
4D	.	4f	.
=37	=37	=37	=37
4E	2e]	1g	1b
4F	.	.	.
2G	2.d	.	.
2A	.	2e	1a
.	4c	.	.
2F	[2c	2f	.
=38	=38	=38	=38
1G	2c]	2.d	0g
.	2B	.	.
.	.	4d	.
2r	2c	8e	.
.	.	8d	.
.	.	8e	.
.	.	8f	.
2G	2B	[2g	.
=39	=39	=39	=39
8A	1A	2g]	0r
8G	.	.	.
8A	.	.	.
8B	.	.	.
1c	.	2f	.
.	1G	2e	.
2B	.	2d	.
=40	=40	=40	=40
2A	1r	2c	0r
2G	.	2.e	.
2F	2r	.	.
.	.	4d	.
2G	2d	[2d	.
=41	=41	=41	=41
1E	8e	4d]	1g
.	8d	.	.
.	8e	4c	.
.	8f	.	.
.	1g	4c	.
.	.	4B	.
1D	.	1d	1a
.	2f	.	.
=42	=42	=42	=42
2r	2e	1G	1b
2G	2d	.	.
8A	2c	2r	1cc
8G	.	.	.
8A	.	.	.
8B	.	.	.
[2c	2e	2g	.
=43	=43	=43	=43
2c]	1d	2a	1dd
2B	.	2b	.
2.A	2r	2cc	1ee
.	[2c	[2a	.
4G	.	.	.
=44	=44	=44	=44
2F	4c]	2a]	1dd
.	8B	.	.
.	8A	.	.
2G	2B	2.g	.
1C	2e	.	1cc
.	.	4e	.
.	2e	[2a	.
=45	=45	=45	=45
0D	1d	2a]	1b
.	.	1g	.
.	2.d	.	1a
.	.	2f#	.
.	4c	.	.
=46	=46	=46	=46
1E	2B	4g	[0g
.	.	4f	.
.	2G	4e	.
.	.	4d	.
1C	1c	2e	.
.	.	2e	.
=47	=47	=47	=47
[0G	[0B	[0d	1g_
.	.	.	1g_
=48	=48	=48	=48
0G]	0B]	0d]	0g]
==	==	==	==
*-	*-	*-	*-
!!!CDT: 1525/^1526/-1594/2/2
!!!OCY: Italia
!!!AGN: Mass (Tenor)
!!!AST: renaissance, vocal
!!!ASW: Antiphon
!!!PWK: Masses, Book 3
!!!RNB: Cadence finals: G
!!!YOR: Le Opere Complete, v. 6, p. 216
!!!YOO: Rome, Italy: Fratelli Scalera
!!!END: 1992//
!!!EED: John Miller
!!!YEC: Copyright 2000, John Miller
!!!YEN: United States of America
!!!YEM: Rights to all derivative electronic formats reserved.
!!!YEM: Refer to licensing agreement for further details.
!!!YEM: This file must be accompanied by the licensing agreement.
!!!YEM: A copy of the licensing agreement may be found at http://www.music-cog.ohio-state.edu/HumdrumDatabases/Palestrina/license.txt
!!!EMD: converted to Humdrum by Bret Aarden
